Sources/FrostedUI/Resources/Icons.xcassets/twitterSize32.imageset/twitter-size-32.svg

<svg
  width="32"
  height="32"
  viewBox="0 0 32 32"
  fill="none"
  xmlns="http://www.w3.org/2000/svg"
  data-fui-icon="true"
>
  <path
    d="M7.14375 18.458C6.90625 18.562 6.06021 18.6562 5.5 18.6562C5.25124 18.6562 5.01502 18.6468 4.78082 18.6224C4.59201 18.6027 4.43707 18.7819 4.50848 18.9578C5.40186 21.158 7.56997 22.7238 10.1139 22.768C8.00652 24.3936 5.35216 25.3625 2.46921 25.3625C2.3438 25.3625 2.21882 25.3607 2.09427 25.3571C1.82845 25.3493 1.71225 25.7071 1.94548 25.8348C4.46055 27.2127 7.35256 28 10.4336 28C21.7567 28 27.9467 18.7688 27.9467 10.7628C27.9467 10.5027 27.94 10.2399 27.9281 9.97984C29.1304 9.12409 30.1743 8.05896 30.9973 6.84556V6.84556C30.9981 6.84444 30.9969 6.84301 30.9957 6.84355C30.0334 7.26282 29.0089 7.56338 27.9361 7.73059C27.8292 7.74724 27.7764 7.6003 27.8651 7.53837C28.7624 6.91193 29.4824 6.0544 29.9347 5.05388C30.0294 4.84456 29.8006 4.65283 29.5965 4.75806C28.5626 5.29081 27.4429 5.68416 26.2633 5.91179C25.1403 4.73611 23.5416 4 21.7712 4C18.3729 4 15.6168 6.71291 15.6168 10.0605C15.6168 10.5339 15.6724 10.9943 15.7753 11.439C10.7859 11.1918 6.35161 8.89196 3.31888 5.37997C3.20563 5.24883 2.99627 5.26584 2.91721 5.42002C2.49512 6.24321 2.25649 7.172 2.25649 8.15389C2.25649 10.2556 3.34388 12.1114 4.99409 13.1974C4.01242 13.1657 3.08822 12.9078 2.27498 12.4762C2.24394 12.4597 2.20629 12.482 2.20629 12.5172V12.5172C2.20629 15.4295 4.29368 17.8628 7.07747 18.4445M7.14375 18.458C7.12161 18.4536 7.09952 18.4491 7.07747 18.4445M7.14375 18.458L7.07747 18.4445"
    stroke="currentColor"
    stroke-width="1.5"
  />
</svg>

<svg xmlns="http://www.w3.org/2000/svg" width="32" height="32" fill="none" data-fui-icon="true" viewBox="0 0 32 32"><path stroke="currentColor" stroke-width="1.5" d="M7.144 18.458c-.238.104-1.084.198-1.644.198a7 7 0 0 1-.72-.034c-.188-.02-.343.16-.272.336.894 2.2 3.062 3.766 5.606 3.81a12.48 12.48 0 0 1-8.02 2.59c-.266-.009-.382.35-.149.477A17.6 17.6 0 0 0 10.434 28c11.323 0 17.513-9.231 17.513-17.237q0-.392-.019-.783a12.4 12.4 0 0 0 3.07-3.134q0-.003-.002-.002c-.963.419-1.987.72-3.06.887-.107.016-.16-.13-.07-.193a6.1 6.1 0 0 0 2.069-2.484c.094-.21-.134-.401-.338-.296a12.4 12.4 0 0 1-3.334 1.154A6.2 6.2 0 0 0 21.771 4c-3.398 0-6.154 2.713-6.154 6.06q.002.711.158 1.379A17.57 17.57 0 0 1 3.32 5.38c-.113-.131-.323-.114-.402.04a6 6 0 0 0-.66 2.734c0 2.102 1.087 3.957 2.737 5.043a6.2 6.2 0 0 1-2.719-.72.047.047 0 0 0-.069.04c0 2.913 2.088 5.346 4.871 5.928m.067.013-.067-.013m.067.013-.067-.013"/></svg>
